!!!COM: des Prez, Josquin
!!!CDT: ~1450-1521/08/27
!!!OTL@@FRA: Nymphes des bois / Requiem
!!!AGN: Chanson
!!!SCT: NJE 29.18
!!!SCA: New Josquin Edition 29.18
!!!voices: 5
**kern	**text	**kern	**text	**kern	**text	**kern	**text	**kern	**text
*staff5	*	*staff4	*	*staff3	*	*staff2	*	*staff1	*
*Ivox	*	*Ivox	*	*Ivox	*	*Ivox	*	*Ivox	*
*I"Bassus	*	*I"Tenor	*	*I"Quinta pars	*	*I"Altus	*	*I"Superius	*
*I'B	*	*I'V	*	*I'T	*	*I'A	*	*I'D	*
*clefF4	*	*clefGv2	*	*clefGv2	*	*clefGv2	*	*clefG2	*
*k[]	*	*k[]	*	*k[]	*	*k[]	*	*k[]	*
*M2/1	*	*M2/1	*	*M2/1	*	*M2/1	*	*M2/1	*
*met(C|)	*	*met(C|)	*	*met(C|)	*	*met(C|)	*	*met(C|)	*
=1-	=	=1-	=	=1-	=	=1-	=	=1-	=
!	!	!LO:TX:Z=5:t=Canon. Pour euiter noyse et debas/Prenez ung demy ton plus bas [Requiem chant, transposed down a 2nd]	!	!	!	!	!	!LO:TX:Z=8:t=Original, all-black notation lacks clefs and mensuration signs.	!
0r	.	[0E	Re-	0r	.	0e	Nym-	0e	Nym-
=2	=	=2	=	=2	=	=2	=	=2	=
0r	.	0E]	.	0r	.	0e	-phes	0g	-phes
=3	=	=3	=	=3	=	=3	=	=3	=
0r	.	0F	.	0r	.	0A	des	1.a	des
.	.	.	.	.	.	.	.	2b\	.
=4	=	=4	=	=4	=	=4	=	=4	=
0AA	Nym-	0E	-qui-	0A	Nym-	[0e	bois,	[0cc	bois,
=5	=	=5	=	=5	=	=5	=	=5	=
0AA	-phes	0E	-em	0A	-phes	0e]	.	0cc]	.
=6	=	=6	=	=6	=	=6	=	=6	=
0BB	des	0r	.	0D	des	0d	.	0dd	de-
=7	=	=7	=	=7	=	=7	=	=7	=
[0AA	bois,	[0E	e-	[0A	bois,	0e	.	1cc	-es-
.	.	.	.	.	.	.	.	1cc	-ses
=8	=	=8	=	=8	=	=8	=	=8	=
0AA]	.	1E]	.	0A]	.	0c	.	1cc	des
.	.	1F	.	.	.	.	.	1a	fon-
=9	=	=9	=	=9	=	=9	=	=9	=
0r	.	0G	.	0r	.	0d	de-	[0b-i	-tai-
=10	=	=10	=	=10	=	=10	=	=10	=
1r	.	0G	-ter-	0r	.	[0d	-es-	0b-]	.
1GG	de-	.	.	.	.	.	.	.	.
=11	=	=11	=	=11	=	=11	=	=11	=
1D	-es-	1F	.	0A	de-	1d]	.	[0a	-nes,
1C	-ses	1E	.	.	.	1e	-ses	.	.
=12	=	=12	=	=12	=	=12	=	=12	=
0D	des	0F	.	1A	-es-	1d	des	0a]	.
.	.	.	.	1A	-ses	[1f	fon-	.	.
=13	=	=13	=	=13	=	=13	=	=13	=
0D	fon-	0F	-nam,	1A	des	2f\]	.	0r	.
.	.	.	.	.	.	2e\	.	.	.
.	.	.	.	[1B-	fon-	1d	.	.	.
=14	=	=14	=	=14	=	=14	=	=14	=
1AA	-tai-	0E	.	2B-\]	.	0c	-tai-	0r	.
.	.	.	.	2A/	.	.	.	.	.
1C	.	.	.	[1A	-tai-	.	.	.	.
=15	=	=15	=	=15	=	=15	=	=15	=
0BB-i	.	0r	.	1A]	.	0d	.	0r	.
.	.	.	.	1G	.	.	.	.	.
=16	=	=16	=	=16	=	=16	=	=16	=
[0AA	-nes	[0E	do-	1.A	-nes	1c	-nes	0cc	Chan-
.	.	.	.	.	.	1r	.	.	.
.	.	.	.	2B\	.	.	.	.	.
=17	=	=17	=	=17	=	=17	=	=17	=
0AA]	.	1E]	.	0c	.	0A	Chan-	1cc	-tres
.	.	1F	.	.	.	.	.	1cc	ex-
=18	=	=18	=	=18	=	=18	=	=18	=
0GG	Chan-	0G	.	0d	Chan-	0B	-tres	1.b	-pers
.	.	.	.	.	.	.	.	2g/	.
=19	=	=19	=	=19	=	=19	=	=19	=
1GG	-tres	0G	-na	[0d	-tres	0B	ex-	1g	.
1GG	ex-	.	.	.	.	.	.	1g	de
=20	=	=20	=	=20	=	=20	=	=20	=
0D	-pers	[0F	.	1d]	.	0A	pers	1.a	tou-
.	.	.	.	1d	ex-	.	.	.	.
.	.	.	.	.	.	.	.	2g/	-tes
=21	=	=21	=	=21	=	=21	=	=21	=
0D	de	0F]	.	1.A	-pers	1r	.	1f	na-
.	.	.	.	.	.	1D	de	1f	-ti
.	.	.	.	2B\	.	.	.	.	.
=22	=	=22	=	=22	=	=22	=	=22	=
1.C	tou-	0G	e-	0c	.	1E	tou-	[0e	-ons,
.	.	.	.	.	.	1C	-tes	.	.
2C/	-tes	.	.	.	.	.	.	.	.
=23	=	=23	=	=23	=	=23	=	=23	=
1C	na-	0G	-is	1r	.	1E	na-	0e]	.
1C	-ti-	.	.	1c	de	1E	-ti-	.	.
=24	=	=24	=	=24	=	=24	=	=24	=
[0GG	-ons	0B-i	.	1.d	tou-	0D	-ons,	0r	.
.	.	.	.	2c\	-tes	.	.	.	.
=25	=	=25	=	=25	=	=25	=	=25	=
0GG]	.	0G	.	1B-i	na-	0d	Chan-	0r	.
.	.	.	.	1B-i	-ti-	.	.	.	.
=26	=	=26	=	=26	=	=26	=	=26	=
0D	Chan-	[0F	.	0A	-ons	1d	-gez	0f	Chan-
.	.	.	.	.	.	1d	vos	.	.
=27	=	=27	=	=27	=	=27	=	=27	=
1D	-gez	0F]	.	1r	.	1.A	vois	1f	-gez
1D	vos	.	.	1D	Chan-	.	.	1f	vos
.	.	.	.	.	.	2B\	.	.	.
=28	=	=28	=	=28	=	=28	=	=28	=
1.C	vois	[0G	.	1E	-gez	0c	.	0e	vois
.	.	.	.	1C	.	.	.	.	.
2BB/	.	.	.	.	.	.	.	.	.
=29	=	=29	=	=29	=	=29	=	=29	=
0GG	.	0G_	.	0D	vos	1r	.	0d	.
.	.	.	.	.	.	1B	tant	.	.
=30	=	=30	=	=30	=	=30	=	=30	=
1r	.	0G_	.	1E	vois	1B	cle-	0g	tant
1GG	tant	.	.	1D	tant	1B	-res	.	.
=31	=	=31	=	=31	=	=31	=	=31	=
1C	cle-	0G_	.	1E	cle-	1.c	et	1g	cle-
1C	-res	.	.	1E	-res	.	.	1g	-res
.	.	.	.	.	.	2d\	.	.	.
=32	=	=32	=	=32	=	=32	=	=32	=
1C	et	0G_	.	1E	et	1e	.	1.g	et
1C	haul-	.	.	1C	haul-	1e	haul-	.	.
.	.	.	.	.	.	.	.	2a/	.
=33	=	=33	=	=33	=	=33	=	=33	=
0BB	-tai-	0G]	.	0D	-tai-	0d	-tai-	1b	.
.	.	.	.	.	.	.	.	1b	haul-
=34	=	=34	=	=34	=	=34	=	=34	=
[0AA	-nes	[0A	.	0E	-nes	[0c	-nes	1.cc	-tai-
.	.	.	.	.	.	.	.	2b\	.
=35	=	=35	=	=35	=	=35	=	=35	=
0AA]	.	0A]	.	1r	.	0c]	.	1a	.
.	.	.	.	1c	En	.	.	2g/	.
.	.	.	.	.	.	.	.	2f/	.
=36	=	=36	=	=36	=	=36	=	=36	=
0C	En	[0G	.	1c	cris	1r	.	1e	-nes
.	.	.	.	1c	tren-	1e	En	1r	.
=37	=	=37	=	=37	=	=37	=	=37	=
1C	cris	0G_	.	0G	-chans	1e	cris	0g	En
1C	tren-	.	.	.	.	1e	tren-	.	.
=38	=	=38	=	=38	=	=38	=	=38	=
0GG	-chans	0G_	.	1r	.	0d	-chans	1g	cris
.	.	.	.	1G	et	.	.	1g	tren-
=39	=	=39	=	=39	=	=39	=	=39	=
1r	.	0G]	.	1.d	la-	1r	.	0d	-chans
1GG	et	.	.	.	.	1B	et	.	.
.	.	.	.	2d\	-men-	.	.	.	.
=40	=	=40	=	=40	=	=40	=	=40	=
1.D	la-	[0F	.	1d	-ta-	1A	la-	1r	.
.	.	.	.	1d	-ti-	1A	-men-	1d	et
2D\	-men-	.	.	.	.	.	.	.	.
=41	=	=41	=	=41	=	=41	=	=41	=
1D	-ta-	0F]	.	[0A	-ons.	1d	-ta-	1.a	la-
1D	-ti-	.	.	.	.	1d	-ti-	.	.
.	.	.	.	.	.	.	.	2a/	-men-
=42	=	=42	=	=42	=	=42	=	=42	=
[0AA	-ons.	1r	.	0A]	.	0c	-ons.	1a	-ta-
.	.	1E	do-	.	.	.	.	1a	-ti-
=43	=	=43	=	=43	=	=43	=	=43	=
0AA]	.	1.E	-mi-	0c	.	0C	.	0e	-ons.
.	.	2F	.	.	.	.	.	.	.
=44	=	=44	=	=44	=	=44	=	=44	=
1.BB-	.	1G	.	[0B-	.	0D	.	0r	.
.	.	[1F	.	.	.	.	.	.	.
2AA/	.	.	.	.	.	.	.	.	.
=45	=	=45	=	=45	=	=45	=	=45	=
0GG	.	1F]	.	0B-]	.	0BB-i	.	0r	.
.	.	1E	.	.	.	.	.	.	.
=46	=	=46	=	=46	=	=46	=	=46	=
[0FF	.	0F	.	[0A	.	0C	.	0a	Car
=47	=	=47	=	=47	=	=47	=	=47	=
0FF]	.	0F	-ne	0A]	.	0c	Car	1a	A-
.	.	.	.	.	.	.	.	1a	-tro-
=48	=	=48	=	=48	=	=48	=	=48	=
0C	Car	[0E	.	0e	Car	1c	A-	[0g	-pos,
.	.	.	.	.	.	1c	-tro-	.	.
=49	=	=49	=	=49	=	=49	=	=49	=
1C	A-	0E]	.	1e	A-	0c	-pos,	0g]	.
1C	-tro-	.	.	1e	-tro-	.	.	.	.
=50	=	=50	=	=50	=	=50	=	=50	=
0D	-pos,	0r	.	0d	-pos,	1r	.	0f	.
.	.	.	.	.	.	1A	tr&egrave;s	.	.
=51	=	=51	=	=51	=	=51	=	=51	=
1r	.	0r	.	1r	.	1B-	ter-	1r	.
1D	tr&egrave;s	.	.	1d	tr&egrave;s	1A	-ri-	1f	tr&egrave;s
=52	=	=52	=	=52	=	=52	=	=52	=
1.E	ter-	0r	.	1.c	ter-	1.G	-ble	1g	ter-
.	.	.	.	.	.	.	.	1g	-ri-
2D\	-ri-	.	.	2B\	-ri-	2F/	.	.	.
=53	=	=53	=	=53	=	=53	=	=53	=
1C	-ble	0r	.	1A	-ble	1E	.	1a	-ble
1BB	sa-	.	.	1G	sa-	1D	sa-	1b	sa-
=54	=	=54	=	=54	=	=54	=	=54	=
0AA	-trap-	0r	.	2F#i/	-trap-	0C	-trap-	0cc	-trap-
.	.	.	.	2E/	.	.	.	.	.
.	.	.	.	1F#i	.	.	.	.	.
=55	=	=55	=	=55	=	=55	=	=55	=
0GG	-pe,	0G	et	1G	-pe,	0D	.	[0b	.
.	.	.	.	1d	sa-	.	.	.	.
=56	=	=56	=	=56	=	=56	=	=56	=
0r	.	1G	lux	1B	-trap-	1E	.	1b]	.
.	.	1E	.	[1e	.	1C	.	1cc	.
=57	=	=57	=	=57	=	=57	=	=57	=
0r	.	0F	.	2e\]	.	0D	-pe,	[0a	-pe,
.	.	.	.	2c\	.	.	.	.	.
.	.	.	.	1d	.	.	.	.	.
=58	=	=58	=	=58	=	=58	=	=58	=
0AA	A	[0E	.	1e	-pe,	0A	A	0a]	.
.	.	.	.	1r	.	.	.	.	.
=59	=	=59	=	=59	=	=59	=	=59	=
1AA	vo-	0E_	.	0e	A	1A	vo-	0cc	A
1AA	-stre Och	.	.	.	.	1A	-stre Och-	.	.
=60	=	=60	=	=60	=	=60	=	=60	=
1.C	ghem	0E]	.	[0e	vo-	[0G	-ghem	1cc	vo-
.	.	.	.	.	.	.	.	1cc	-stre Och-
2D\	.	.	.	.	.	.	.	.	.
=61	=	=61	=	=61	=	=61	=	=61	=
0E	.	0r	.	1e]	.	0G]	.	1.b	-ghem
.	.	.	.	1e	-stre Och-	.	.	.	.
.	.	.	.	.	.	.	.	2g/	.
=62	=	=62	=	=62	=	=62	=	=62	=
1r	.	0r	.	1.e	-ghem	1r	.	0g	.
1E	a-	.	.	.	.	1G	a-	.	.
.	.	.	.	2d\	.	.	.	.	.
=63	=	=63	=	=63	=	=63	=	=63	=
1.F	trap-	0r	.	2c\	.	1.A	-trap-	0r	.
.	.	.	.	2B\	.	.	.	.	.
.	.	.	.	1A	.	.	.	.	.
2E\	-p&eacute;	.	.	.	.	2G/	-p&eacute;	.	.
=64	=	=64	=	=64	=	=64	=	=64	=
1D	en	0r	.	1r	.	1F	en	0r	.
1C	sa	.	.	[1A	a-	1E	sa	.	.
=65	=	=65	=	=65	=	=65	=	=65	=
0BB	trap-	0r	.	1A]	.	0D	trap-	1r	.
.	.	.	.	1G#i	.	.	.	1b	a-
=66	=	=66	=	=66	=	=66	=	=66	=
0AA	-pe,	0r	.	1.A	-trap-	0E	-pe,	1.cc	-trap-
.	.	.	.	2B\	-p&eacute;	.	.	2b\	-p&eacute;
=67	=	=67	=	=67	=	=67	=	=67	=
0r	.	0r	.	2c\	en	0r	.	1a	en
.	.	.	.	2d\	sa	.	.	.	.
.	.	.	.	[1e	trap-	.	.	1g	sa
=68	=	=68	=	=68	=	=68	=	=68	=
0r	.	0r	.	2e\]	.	0r	.	0f	trap-
.	.	.	.	2c\	.	.	.	.	.
.	.	.	.	1d	.	.	.	.	.
=69	=	=69	=	=69	=	=69	=	=69	=
0C	Vray	[0G	per-	[0e	-pe,	0c	Vray	1e	-pe,
.	.	.	.	.	.	.	.	1r	.
=70	=	=70	=	=70	=	=70	=	=70	=
1C	tre-	0G]	.	0e]	.	1c	tre-	0g	Vray
1C	-so-	.	.	.	.	1c	-so-	.	.
=71	=	=71	=	=71	=	=71	=	=71	=
0FF	-rier	[0F	-pe-	0A	Vray	0c	-rier	1.a	tre-
.	.	.	.	.	.	.	.	2b\	.
=72	=	=72	=	=72	=	=72	=	=72	=
1r	.	0F_	.	1A	tre-	1r	.	1cc	.
1FF	de	.	.	1A	-so-	1c	de	1cc	-so-
=73	=	=73	=	=73	=	=73	=	=73	=
1BB-	mu-	0F]	.	1B-	-rier	1.d	mu-	1f	-rier
1BB-i	-si-	.	.	1B-i	de	.	.	1f	de
.	.	.	.	.	.	2d\	-si-	.	.
=74	=	=74	=	=74	=	=74	=	=74	=
1GG	-qu et	0G	.	1B-i	mu-	1d	-que et	1b-	mu-
1GG	chief	.	.	1BB-	-si-	1d	chief	1b-i	-si-
=75	=	=75	=	=75	=	=75	=	=75	=
1.BB-i	d'oeu-	[0F	-tu-	1D	-qu et	0d	d'oeu-	1b-i	-qu et
.	.	.	.	1D	chief	.	.	1b-i	chief
2AA/	.	.	.	.	.	.	.	.	.
=76	=	=76	=	=76	=	=76	=	=76	=
0FF	-vre,	0F]	.	1.F	d'oeu-	[0c	-vre,	0a	d'oeu-
.	.	.	.	2E/	.	.	.	.	.
=77	=	=77	=	=77	=	=77	=	=77	=
0r	.	0E	.	0C	-vre,	0c]	.	[0g	-vre,
=78	=	=78	=	=78	=	=78	=	=78	=
0r	.	0E	-a	1r	.	0B	.	0g]	.
.	.	.	.	[1G	Docte,	.	.	.	.
=79	=	=79	=	=79	=	=79	=	=79	=
0C	Docte,	0r	.	1G]	.	0G	.	0e	Docte,
.	.	.	.	1E	e-	.	.	.	.
=80	=	=80	=	=80	=	=80	=	=80	=
1AA	e-	0r	.	1E	-le-	0c	Docte,	1e	e-
1AA	-le-	.	.	[1A	-gant	.	.	1e	-le-
=81	=	=81	=	=81	=	=81	=	=81	=
0D	-gant	0r	.	1A]	.	1A	e-	0f	-gant
.	.	.	.	1F	de	1A	-le-	.	.
=82	=	=82	=	=82	=	=82	=	=82	=
1r	.	0r	.	1G	corps	0B	-gant	0d	de
1GG	de	.	.	1G	et	.	.	.	.
=83	=	=83	=	=83	=	=83	=	=83	=
1.C	corps	[0G	lu-	1E	non	1r	.	1e	corps
.	.	.	.	1C	point	1G	de	1e	et
2C/	et	.	.	.	.	.	.	.	.
=84	=	=84	=	=84	=	=84	=	=84	=
1C	non	0G]	.	0E	trap-	1c	corps	1e	non
1C	point	.	.	.	.	1c	et	1e	point
=85	=	=85	=	=85	=	=85	=	=85	=
0D	trap-	0F	.	[0D	-pe;	1A	non	1.f	trap-
.	.	.	.	.	.	1A	point	.	.
.	.	.	.	.	.	.	.	2d/	.
=86	=	=86	=	=86	=	=86	=	=86	=
[0GG	-pe;	0G	-ce-	0D]	.	1.B	tra-	[0d	-pe;
.	.	.	.	.	.	2G/	.	.	.
=87	=	=87	=	=87	=	=87	=	=87	=
0GG]	.	1G	-at	1r	.	0G	-pe;	0d]	.
.	.	[1B-i	.	[1G	Grant	.	.	.	.
=88	=	=88	=	=88	=	=88	=	=88	=
0r	.	1B-]	.	1G]	.	[0d	Grant,	0r	.
.	.	1A	.	1F	do-	.	.	.	.
=89	=	=89	=	=89	=	=89	=	=89	=
0GG	Grant	0G	.	0B-	-maige,	0d]	.	0r	.
=90	=	=90	=	=90	=	=90	=	=90	=
[0D	do-	[0F	.	1r	.	1r	.	0a	Grant
.	.	.	.	1A	grant	1d	grant	.	.
=91	=	=91	=	=91	=	=91	=	=91	=
1D]	.	0F]	.	1A	do-	1d	dom-	1a	dom-
1D	-mai-	.	.	1A	-mai-	1d	-mai-	1a	-mai-
=92	=	=92	=	=92	=	=92	=	=92	=
0BB	-ge est	0G	.	0d	-ge est	0D	-ge est	0b	-ge est
=93	=	=93	=	=93	=	=93	=	=93	=
[0AA	que	[0A	.	0c	que	0E	que	0cc	que
=94	=	=94	=	=94	=	=94	=	=94	=
0AA]	.	0A]	.	[0e	la	1C	la	1.cc	la
.	.	.	.	.	.	1C	ter-	.	.
.	.	.	.	.	.	.	.	2cc\	ter-
=95	=	=95	=	=95	=	=95	=	=95	=
1.C	la	[0G	.	1e]	.	1.E	-re	1cc	-re
.	.	.	.	1e	ter-	.	.	1cc	le
2C/	ter-	.	.	.	.	2F/	le	.	.
=96	=	=96	=	=96	=	=96	=	=96	=
1GG	-re	0G]	.	1d	-re	1G	coeu-	0b	coeu-
1GG	le	.	.	1d	le	[1D	-vre,	.	.
=97	=	=97	=	=97	=	=97	=	=97	=
0D	coeu-	0F	.	1.f	coeu-	1D]	.	0a	-vre,
.	.	.	.	.	.	[1A	la	.	.
.	.	.	.	2e\	.	.	.	.	.
=98	=	=98	=	=98	=	=98	=	=98	=
1AA	-vre,	[0E	e-	0c	-vre,	1A]	.	1.cc	la
[1C	la	.	.	.	.	1E	ter-	.	.
.	.	.	.	.	.	.	.	2b\	ter-
=99	=	=99	=	=99	=	=99	=	=99	=
2C/]	.	1E]	.	1r	.	0c	-re	1g	-re
2BB/	ter-	.	.	.	.	.	.	.	.
1AA	.	1F	.	1C	que	.	.	1a	le
=100	=	=100	=	=100	=	=100	=	=100	=
1GG	-re	0G	.	1.D	la	1B	le	0b	coeu-
1GG	le	.	.	.	.	[1d	coeu-	.	.
.	.	.	.	2E/	tre-	.	.	.	.
=101	=	=101	=	=101	=	=101	=	=101	=
0D	coeu-	0F	.	2F/	-re	2d\]	.	0a	-vre,
.	.	.	.	2G/	.	2e\	.	.	.
.	.	.	.	[1A	.	2f\	.	.	.
.	.	.	.	.	.	2d\	.	.	.
=102	=	=102	=	=102	=	=102	=	=102	=
0AA	-vre,	0E	.	2A/]	.	1c	-vre,	1.cc	la
.	.	.	.	2B\	le	.	.	.	.
.	.	.	.	[1c	coeu-	[1A	coeu-	.	.
.	.	.	.	.	.	.	.	2b\	ter-
=103	=	=103	=	=103	=	=103	=	=103	=
0r	.	1F	.	2c\]	.	2A/]	.	1a	-re
.	.	.	.	2d\	.	2B\	.	.	.
.	.	1E	.	[1e	.	1c	.	1g	le
=104	=	=104	=	=104	=	=104	=	=104	=
0r	.	0F	-is.	1e]	.	1.A	.	0a	coeu-
.	.	.	.	1d	-vre.	.	.	.	.
.	.	.	.	.	.	2B\	.	.	.
=105	=	=105	=	=105	=	=105	=	=105	=
1.C	la	[0El	.	1.e	la	1c	-vre,	1g	-vre,
.	.	.	.	.	.	1G	ter-	[1e	la
2BB/	ter-	.	.	2d\	ter-	.	.	.	.
=106	=	=106	=	=106	=	=106	=	=106	=
1AA	-re	0E_	.	1c	-re	1A	-re	1e]	.
1GG	le	.	.	1B	le	1B	le	1e	ter-
=107	=	=107	=	=107	=	=107	=	=107	=
0AA	coeu-	0E_	.	0A	coeu-	0c	coeu-	1e	-re
.	.	.	.	.	.	.	.	1e	le
=108	=	=108	=	=108	=	=108	=	=108	=
[0EEl	-vre.	0E_	.	[0Gl	-vre.	[0Bl	-vre.	1.g	coeu-
.	.	.	.	.	.	.	.	2e/	.
=109	=	=109	=	=109	=	=109	=	=109	=
0EE]	.	0E]	.	0G]	.	0B]	.	0el	-vre.
!!LO:LB:g=z
=110||	=	=110||	=	=110||	=	=110||	=	=110||	=
!!section: Acoutres vous
!!!OMD: Acoutres vous
0E	A-	0r	.	0c	A-	0e	A-	0g	A-
=111	=	=111	=	=111	=	=111	=	=111	=
1E	-coul-	0r	.	1B	-coul-	1e	-coul-	1g	-coul-
1E	-tr&eacute;s	.	.	1G	-tr&eacute;s	1e	-tr&eacute;s	1g	-tr&eacute;s
=112	=	=112	=	=112	=	=112	=	=112	=
[0D	vous	0r	.	0d	vous	[0f	vous	[0a	vous
=113	=	=113	=	=113	=	=113	=	=113	=
1D]	.	0r	.	0d	d'ha	1f]	.	1a]	.
1D	d'ha-	.	.	.	.	1f	d'ha-	1a	d'ha-
=114	=	=114	=	=114	=	=114	=	=114	=
1.A	-bits	0r	.	1c	-bits	1e	-bits	1.cc	-bits
.	.	.	.	[1A	.	1c	.	.	.
2G\	.	.	.	.	.	.	.	2b\	.
=115	=	=115	=	=115	=	=115	=	=115	=
1F	.	0r	.	2A/]	.	0d	de	1a	.
.	.	.	.	2G/	.	.	.	.	.
1F	de	.	.	1A	de	.	.	1a	de
=116	=	=116	=	=116	=	=116	=	=116	=
[0E	doeul,	0r	.	0B	doeul,	[0e	doeul,	0g	doeul,
=117	=	=117	=	=117	=	=117	=	=117	=
0E]	.	0r	.	1r	.	0e]	.	0b	Jos-
.	.	.	.	[1e	Jos-	.	.	.	.
=118	=	=118	=	=118	=	=118	=	=118	=
0A	Jos-	0r	.	1e]	.	1r	.	0cc	-quin,
.	.	.	.	[1c	-quin,	1e	Jos-	.	.
=119	=	=119	=	=119	=	=119	=	=119	=
0F	-quin,	0r	.	1c]	.	0f	-quin,	0a	Pier-
.	.	.	.	[1d	Pier-	.	.	.	.
=120	=	=120	=	=120	=	=120	=	=120	=
0G	Pier-	0r	.	1d]	.	0d	Pier-	0b	-son,
.	.	.	.	[1B	-son,	.	.	.	.
=121	=	=121	=	=121	=	=121	=	=121	=
0E	-son,	0r	.	1B]	.	0e	-son,	0g	Bru-
.	.	.	.	[1c	Bru-	.	.	.	.
=122	=	=122	=	=122	=	=122	=	=122	=
0F	Bru-	0r	.	1c]	.	0c	Bru-	0a	-mel,
.	.	.	.	[1A	-mel,	.	.	.	.
=123	=	=123	=	=123	=	=123	=	=123	=
1D	-mel,	0r	.	1A]	.	1d	-mel,	0f	Com-
1D	Com-	.	.	1B-	Com-	1d	Com-	.	.
=124	=	=124	=	=124	=	=124	=	=124	=
0E	-pe-	0r	.	0G	-pe-	0B	-pe-	1.g	-pe-
.	.	.	.	.	.	.	.	2e/	.
=125	=	=125	=	=125	=	=125	=	=125	=
0AA	re,	0r	.	0A	-re,	0c	-re,	0e	-re,
=126	=	=126	=	=126	=	=126	=	=126	=
0E	Et	0r	.	0c	Et	0e	Et	0g	Et
=127	=	=127	=	=127	=	=127	=	=127	=
1E	pleu-	0r	.	1B	pleu-	1e	pleu-	1g	pleu-
1E	-r&eacute;s	.	.	1G	-r&eacute;s	1e	-r&eacute;s	1g	-r&eacute;s
=128	=	=128	=	=128	=	=128	=	=128	=
[0D	gros-	0r	.	0d	gros-	[0f	gros-	[0a	gros-
=129	=	=129	=	=129	=	=129	=	=129	=
1D]	.	0r	.	0d	-ses	1f]	.	1a]	.
1D	-ses	.	.	.	.	1f	-ses	1a	-ses
=130	=	=130	=	=130	=	=130	=	=130	=
1.A	lar-	0r	.	1c	lar-	1e	lar-	1.cc	lar-
.	.	.	.	[1A	.	1c	.	.	.
2G\	.	.	.	.	.	.	.	2b\	.
=131	=	=131	=	=131	=	=131	=	=131	=
1F	.	0r	.	2A/]	.	0d	-mes	1a	.
.	.	.	.	2G/	.	.	.	.	.
1F	-mes	.	.	1A	-mes	.	.	1a	-mes
=132	=	=132	=	=132	=	=132	=	=132	=
[0E	d'oeil,	0r	.	0B	d'oeil,	[0e	d'oeil,	0g	d'oeil,
=133	=	=133	=	=133	=	=133	=	=133	=
0E]	.	0r	.	1r	.	0e]	.	0b	Per-
.	.	.	.	[1e	Per-	.	.	.	.
=134	=	=134	=	=134	=	=134	=	=134	=
0A	Per-	0r	.	1e]	.	1r	.	0cc	-du
.	.	.	.	[1c	-du	1e	Per-	.	.
=135	=	=135	=	=135	=	=135	=	=135	=
0F	-du	0r	.	1c]	.	0f	du	0a	a-
.	.	.	.	[1d	a-	.	.	.	.
=136	=	=136	=	=136	=	=136	=	=136	=
0G	a-	0r	.	1d]	.	0d	a-	0b	-v&eacute;s
.	.	.	.	[1B	-v&eacute;s	.	.	.	.
=137	=	=137	=	=137	=	=137	=	=137	=
0E	-v&eacute;s	0r	.	1B]	.	0e	-v&eacute;s	0g	vo-
.	.	.	.	[1c	vo-	.	.	.	.
=138	=	=138	=	=138	=	=138	=	=138	=
0F	vo-	0r	.	1c]	.	0c	vo-	0a	-stre
.	.	.	.	[1A	-stre	.	.	.	.
=139	=	=139	=	=139	=	=139	=	=139	=
1D	-stre	0r	.	1A]	.	1d	-stre	0f	bon
1D	bon	.	.	1B-	bon	1d	bon	.	.
=140	=	=140	=	=140	=	=140	=	=140	=
0E	pe-	0r	.	0G	pe-	0B	-pe-	1.g	pe-
.	.	.	.	.	.	.	.	2e/	.
=141	=	=141	=	=141	=	=141	=	=141	=
0AA	-re.	0r	.	0A	-re.	0c	re.	0e	-re.
=142	=	=142	=	=142	=	=142	=	=142	=
0E	Re-	0e	Re-	0G	Re-	0B	Re-	0g	Re-
=143	=	=143	=	=143	=	=143	=	=143	=
1C	-qui-	1e	-qui-	1E	-qui-	1c	-qui-	1g	-qui-
1C	-es-	1e	-es-	1E	-es-	1c	-es-	1g	-es-
=144	=	=144	=	=144	=	=144	=	=144	=
1AA	-cat	1e	-cat	1A	-cat	1c	-cat	1cc	-cat
1AA	in	1e	in	1A	in	1c	in	1cc	in
=145	=	=145	=	=145	=	=145	=	=145	=
0C	pa-	0e	pa-	1.E	pa-	0c	pa-	1.g	pa-
.	.	.	.	2F/	.	.	.	2a/	.
=146	=	=146	=	=146	=	=146	=	=146	=
[0GG	-ce.	0d	.	[0G	-ce.	0B	.	0b	-ce.
=147	=	=147	=	=147	=	=147	=	=147	=
0GG]	.	0d	-ce.	0G]	.	[0B	-ce.	[0dd	A-
=148	=	=148	.	=148	=	=148	=	=148	=
[0G	A-	0d	A-	0r	.	0B]	.	1dd]	.
.	.	.	.	.	.	.	.	1b	.
=149	=	=149	=	=149	=	=149	=	=149	=
1G]	.	[0e	.	[0G	A-	0r	.	0b	men,
1E	.	.	.	.	.	.	.	.	.
=150	=	=150	=	=150	=	=150	=	=150	=
0E	-men,	0e]	.	1G]	.	0B	A-	[0g	a-
.	.	.	.	1E	.	.	.	.	.
=151	=	=151	=	=151	=	=151	=	=151	=
1r	.	[0el	-men.	[0El	-men.	0c	.	1g]	.
[1C	a-	.	.	.	.	.	.	1e	.
=152	=	=152	=	=152	=	=152	=	=152	=
1C]	.	0e_	.	0E_	.	[0c	-men,	[0el	men.
1AA	.	.	.	.	.	.	.	.	.
=153	=	=153	=	=153	=	=153	=	=153	=
0AA	.	0e_	.	0E_	.	0c]	.	0e_	.
=154	=	=154	=	=154	=	=154	=	=154	=
[0EEl	-men.	0e_	.	0E_	.	0B	a-	0e_	.
=155	=	=155	=	=155	=	=155	=	=155	=
0EE]	.	0e]	.	0E]	.	0Bl	-men.	0e]	.
==	=	==	=	==	=	==	=	==	=
*-	*-	*-	*-	*-	*-	*-	*-	*-	*-
!!!RDF**kern: l=long note in original notation
!!!RDF**kern: i=editorial accidental
!!!ENC: Will Watson 11/07/2011
!!!END: 2011/07/11/
!!!EED: Jesse Rodin
!!!EEV: 2011/08/15/
!!!SMS: Benthem, "Masses and Mass Sections -- Ockeghem"; Smijers; Medici Codex ed.
!!attribution-level@Jos: 1 (secure, core group [checkmark])
!!!ONB: Translated from MusicXML and edited on 2011/08/15/ by Craig Sapp
!!muse2ps:  C^@{COM}\n@{SCT}^i2I150v75,75,75,75,105c175z18l2780t100
